X: 10
T: LAVENA
B: "FIFTY OLD ENGLISH FOLK DANCE AIRS", Edgar H. Hunt ed., Schott & Co. Ltd. pub., London 1939
Z: 2004-2014 John Chambers <jc:trillian.mit.edu>
N: This tune is sometimes used for the dance PICKING OF STICKS.
M: 6/8
L: 1/8
K: Dm
d |\
d2d ^c>=Bc | d2d  A2d  | d2d ^c>=Bc | d2d A2_B |\
B>dc B>cB  | A>BA G>FE | F>GA G>AF  | E3  D2  |]

%%sep 1 1 500
%%sep 1 1 500
